X: 699
T: Nanjing dao beijing
L: 1/8
M: 2/4
K: Bb
b c' f' d' [I:setbarnb 1]| 
c'4 | 
f' c' b g | 
f4 | 
bb2d | 
d' c'd'2 | 
f' d'/ c'/ b g/ b/ | 
c'4 | 
c'> b c' f' | 
b a/ g/f2 | 
b g/ f/ d c/ d/ | 
f4 | 
c' d' b g | 
f'4 | 
b g/ f/ d c/ d/ | 
f4 |]

@@@ Tune index: 9573
